packages/kaspersky-hexa-ui-icons/src/iconsSVGs/16/Wizard.svg

<svg width="16" height="16" viewBox="0 0 16 16" fill="none" xmlns="http://www.w3.org/2000/svg">
<path d="M13.1106 1.13108C13.175 0.956957 13.4213 0.956957 13.4857 1.13108L13.8238 2.04486C13.8441 2.09961 13.8873 2.14277 13.942 2.16303L14.8558 2.50116C15.0299 2.56559 15.0299 2.81187 14.8558 2.8763L13.942 3.21443C13.8873 3.23469 13.8441 3.27785 13.8238 3.33259L13.4857 4.24637C13.4213 4.4205 13.175 4.4205 13.1106 4.24637L12.7724 3.33259C12.7522 3.27785 12.709 3.23469 12.6543 3.21443L11.7405 2.8763C11.5664 2.81187 11.5664 2.56559 11.7405 2.50116L12.6543 2.16303C12.709 2.14277 12.7522 2.09961 12.7724 2.04486L13.1106 1.13108Z" fill="black"/>
<path d="M5.62013 1.37162C5.55569 1.1975 5.30942 1.1975 5.24499 1.37162L4.90685 2.2854C4.8866 2.34015 4.84344 2.38331 4.78869 2.40357L3.87491 2.7417C3.70079 2.80613 3.70078 3.05241 3.87491 3.11684L4.78869 3.45497C4.84344 3.47522 4.8866 3.51839 4.90685 3.57313L5.24499 4.48691C5.30942 4.66104 5.55569 4.66104 5.62013 4.48691L5.95826 3.57313C5.97851 3.51839 6.02167 3.47522 6.07642 3.45497L6.9902 3.11684C7.16433 3.05241 7.16433 2.80613 6.9902 2.7417L6.07642 2.40357C6.02168 2.38331 5.97851 2.34015 5.95826 2.2854L5.62013 1.37162Z" fill="black"/>
<path fill-rule="evenodd" clip-rule="evenodd" d="M8.74204 4.45832C8.99588 4.20448 9.40744 4.20448 9.66128 4.45832L11.5999 6.39698C11.8538 6.65082 11.8538 7.06238 11.5999 7.31622L4.07953 14.8366C3.82568 15.0905 3.41413 15.0905 3.16029 14.8366L1.22163 12.898C0.96779 12.6441 0.96779 12.2326 1.22163 11.9787L8.74204 4.45832ZM9.20166 5.83718L8.33186 6.70698L9.35129 7.72638L10.2211 6.8566L9.20166 5.83718ZM2.60049 12.4383L7.41262 7.62621L8.43205 8.64562L3.61991 13.4578L2.60049 12.4383Z" fill="black"/>
<path d="M13.2618 9.14896C13.1974 8.97484 12.9511 8.97484 12.8866 9.14896L12.5485 10.0627C12.5283 10.1175 12.4851 10.1607 12.4304 10.1809L11.5166 10.519C11.3424 10.5835 11.3424 10.8297 11.5166 10.8942L12.4304 11.2323C12.4851 11.2526 12.5283 11.2957 12.5485 11.3505L12.8866 12.2643C12.9511 12.4384 13.1974 12.4384 13.2618 12.2643L13.5999 11.3505C13.6202 11.2957 13.6633 11.2526 13.7181 11.2323L14.6319 10.8942C14.806 10.8297 14.806 10.5835 14.6319 10.519L13.7181 10.1809C13.6633 10.1607 13.6202 10.1175 13.5999 10.0627L13.2618 9.14896Z" fill="black"/>
</svg>

<svg xmlns="http://www.w3.org/2000/svg" width="16" height="16" fill="none" viewBox="0 0 16 16"><path fill="#000" fill-rule="evenodd" d="M13.1106 1.131c.0644-.174.3107-.174.3751 0l.3381.9139a.2.2 0 0 0 .1182.1181l.9138.3382c.1741.0644.1741.3107 0 .375l-.9138.3382a.2.2 0 0 0-.1182.1182l-.3381.9138c-.0644.174-.3107.174-.3751 0l-.3382-.9138a.2.2 0 0 0-.1181-.1182l-.9138-.3381c-.1741-.0644-.1741-.3107 0-.3752l.9138-.338a.2.2 0 0 0 .1181-.1182zm-7.4905.2406c-.0644-.1741-.3107-.1741-.3751 0l-.3381.9138a.2.2 0 0 1-.1182.1182l-.9138.338c-.1741.0645-.1741.3108 0 .3752l.9138.3382a.2.2 0 0 1 .1181.1181l.3382.9138c.0644.1741.3107.1741.3751 0l.3381-.9138a.2.2 0 0 1 .1182-.1181l.9138-.3382c.1741-.0644.1741-.3107 0-.3751l-.9138-.3381a.2.2 0 0 1-.1181-.1182zm3.122 3.0867a.65.65 0 0 1 .9192 0l1.9386 1.9387a.65.65 0 0 1 0 .9192l-7.5204 7.5204a.65.65 0 0 1-.9192 0L1.2216 12.898a.65.65 0 0 1 0-.9193zm.4596 1.3789-.8698.8698 1.0194 1.0194.8698-.8698zm-6.6012 6.6011 4.8121-4.812 1.0195 1.0193-4.8122 4.8122zM13.2618 9.149c-.0645-.1741-.3107-.1741-.3751 0l-.3382.9137a.2.2 0 0 1-.1182.1182l-.9137.3381c-.1741.0645-.1741.3107 0 .3752l.9137.3381a.2.2 0 0 1 .1182.1182l.3382.9138c.0644.1741.3106.1741.3751 0l.3381-.9138a.2.2 0 0 1 .1182-.1182l.9138-.3381c.1741-.0645.1741-.3107 0-.3752l-.9138-.3381a.2.2 0 0 1-.1182-.1182z"/></svg>
